X:30
T:Mill of Laggan, The
R:reel
C:William Marshall
S:1822 Collection p52
B:Athole
Z:Paul Stewart Cranford (P.S.C.), <http://www.cranfordpub.com>
M:C|
L:1/8
Q:333
K:F
A|FAcf f2 ef|gaba gGGA|FAcf f2 ef|afge fFF:|
||B|A/B/c cA B/c/d dB|d/e/f fd eccb|afge f2 dB|A/B/c GB AFFB|
A/B/c cA B/c/d dB|d/e/f fd eccb|afca gece|fdcB AFF|]
